X:98
T:Kiss THO3.098, The
O:England;London
M:C
L:1/8
Z:vmp. Peter Dunk 2011.from a transcription by Fynn Titford-Mock 2006-9
B:Thompson's Compleat Collection of 200 Favourite Country Dances Vol. III.1765-72
Q:1/4=140
K:Bb
F|B/B/B Bc c/c/c ce|df (e/d/c/B/) AcAF|B/B/B Bc c/c/c cb|afc=e f2F2:|
F|c/c/c ce d/d/d df|edcB AcAF|Ebge DfdB|[cC]ecA B2[B2B,2]:|

